X: 22493
T: Lady Dillon
R: reel
M: 4/4
K: Gmajor
G2 EF G2 G2|BAGF GA G2|ABAD A2 A2|cBGB c4|
Bd B/c/d ce c/d/e|Bd B/c/d cBAG|F2 ED E2 FG|A4 A4||
GABc d2 d2|c/d/e dc c4|Bd B/c/d cBAG|AGFG A2 D2|
G2 G2 FGAF|GFED c2 Bc|dcBA GFDF|G4 G4||
d2 BA G2 G2|FG EF D3G|FGEF DGFG|A2 B2 A4|
B2 BA/B/ cABG|F2 FE/F/ GEFD|c2 cB/c/ dBcA|G2 GF/G/ AFGD|
d2 dc/d/ ecdB|AGAB c3B|AFGE D2 GF|G2 GA G4||

